X: 30208
T: Old Grey Goose, The
R: jig
M: 6/8
K: Eminor
EF|GBG FAF|GEE EFE|vD/vE/FA dAG|{FG}FEF DEF|
~G3 ~A3|~B3 gfg|{ef}edB {Bc}BAF|GEE E2:|
|:D|~G3 dGe|dGe dBG|GAA (^c/B/)Ae|Af A^g Aa|
~G3 dBA|GdB Ggf|{ef}edB {Bc}BAF|GEE E2:|
|:A|Bee {ef}edB|def gfe|{fg}fdd add|f/g/ag fed|
~e3 edB|def Ggf|{ef}edB {Bc}BAF|GEE E2:|
|:c|BGB AFA|GBE E2c|BGB ~A2G|FA EA Dc|
BGB AGF|GFE gfg|{ef}edB {Bc}BAF|GEE E2:|
|:f|gfg aga|bd'e' e2f|gbd' {ab}a2g|{fg}fef def|
Ggg eff|def Bgf|{ef}edB {Bc}BAF|GEE E2:|
|:f|geB {Bc}BAB|GB FB Ef|gdB ~A2G|FEF D2f|
geB {Bc}BAB|GFE gfg|{ef}edB {Bc}BAF|GEE E2:|

